assets/svg/1F63F.svg

<svg xmlns="http://www.w3.org/2000/svg" viewBox="0 0 64 64" enable-background="new 0 0 64 64"><path fill="#7094a6" d="m49.761 10.667c-.986 4.137 9.02 12.771 11.934 13.466s1.56-8.159 1.425-13.12c-.14-5.106-.016-10.271-2.926-10.966-2.911-.694-9.446 6.484-10.433 10.62"/><path fill="#eda75a" d="m50.26 13.894c-.859 3.595 7.833 11.09 10.361 11.695 2.527.604 1.354-7.084 1.236-11.394-.122-4.435-.014-8.92-2.544-9.521-2.523-.604-8.198 5.628-9.05 9.22"/><path fill="#7094a6" d="m14.12 10.667c.989 4.137-9.02 12.771-11.931 13.466-2.912.695-1.56-8.159-1.425-13.12.14-5.106.016-10.271 2.926-10.966 2.91-.694 9.445 6.484 10.43 10.62"/><path fill="#eda75a" d="m13.842 13.894c.858 3.594-7.833 11.09-10.361 11.695-2.527.604-1.354-7.084-1.236-11.394.122-4.435.014-8.92 2.541-9.521 2.526-.604 8.201 5.628 9.06 9.22"/><path fill="#87b1c1" d="m63.55 31.425c0 17.552-14.224 31.774-31.774 31.774-17.552 0-31.775-14.222-31.775-31.774 0-17.548 14.223-29.765 31.774-29.765 17.551 0 31.775 12.217 31.775 29.765"/><path fill="#7094a6" d="m15.12 40.719c-5.632-12.09-5.277-24.06-.188-34.808-8.859 4.807-14.934 14.411-14.934 25.518 0 17.548 14.223 31.774 31.774 31.774.314 0 .618-.039.93-.047-7.284-6.135-13.422-13.509-17.582-22.437"/><g fill="#394c54"><path d="m26.354 43.43c0-2.579 2.194-2.531 5.186-2.531 2.995 0 5.654-.048 5.654 2.531 0 2.582-2.428 4.674-5.42 4.674-2.992-.0001-5.42-2.092-5.42-4.674"/><path d="m54.09 18.807c-4.98-2.107-9.319-5.181-13.262-9.384-.824-.879-2.3-.53-2.778.577-.29.671-.161 1.417.338 1.947 4.205 4.49 8.85 7.771 14.199 10.04.231.098.471.149.71.149.84 0 1.602-.644 1.774-1.5.161-.788-.223-1.506-.981-1.828"/><path d="m9.457 18.807c4.979-2.107 9.317-5.181 13.262-9.384.822-.879 2.298-.53 2.778.577.291.671.161 1.417-.337 1.947-4.207 4.49-8.85 7.771-14.2 10.04-.231.098-.471.149-.712.149-.838 0-1.6-.644-1.772-1.5-.162-.788.223-1.506.981-1.828"/><path d="m21.26 56.32c-.626.712-.24 1.905.791 1.905 1.189 0 5.459-1.802 9.694-1.802 4.742 0 9.435 1.802 9.694 1.802 1.03 0 1.409-1.193.797-1.905-5.681-6.552-15.305-6.552-20.976 0"/></g><g fill="#fff"><path d="m27.27 28.966c0 5.345-2.888 9.67-6.456 9.67-3.573 0-6.46-4.325-6.46-9.67 0-5.342 2.887-9.67 6.46-9.67 3.568 0 6.456 4.329 6.456 9.67"/><path d="m49.13 28.966c0 5.345-2.889 9.67-6.456 9.67s-6.46-4.325-6.46-9.67c0-5.342 2.893-9.67 6.46-9.67s6.456 4.329 6.456 9.67"/></g><g fill="#25333a"><path d="m24.994 34.03c0 2.798-1.868 5.066-4.176 5.066-2.312 0-4.18-2.269-4.18-5.066 0-2.799 1.868-5.067 4.18-5.067 2.308 0 4.176 2.268 4.176 5.067"/><path d="m46.847 34.03c0 2.798-1.87 5.066-4.176 5.066-2.312 0-4.184-2.269-4.184-5.066 0-2.799 1.872-5.067 4.184-5.067 2.306 0 4.176 2.268 4.176 5.067"/></g><g fill="#fff"><path d="m22.04 30.86c0 1.503-.545 2.715-1.225 2.715-.671 0-1.22-1.212-1.22-2.715 0-1.5.549-2.712 1.22-2.712.68 0 1.225 1.212 1.225 2.712"/><path d="m43.892 30.86c0 1.503-.547 2.715-1.227 2.715-.671 0-1.221-1.212-1.221-2.715 0-1.5.55-2.712 1.221-2.712.68 0 1.227 1.212 1.227 2.712"/></g><g fill="#5e7d89"><path d="m24.676 47.95c-.043.755-.563 1.34-1.164 1.307l-16.936-.958c-.598-.033-1.052-.673-1.01-1.431l0 0c.043-.753.565-1.34 1.164-1.307l16.937.958c.6.036 1.051.675 1.01 1.431l0 0"/><path d="m24.01 51.12c.124.712-.179 1.357-.673 1.444l-13.995 2.428c-.495.086-.997-.423-1.121-1.135l0 0c-.124-.71.179-1.357.673-1.444l13.995-2.428c.495-.086.998.424 1.121 1.135l0 0"/><path d="m40.732 47.647c.043.756.563 1.341 1.164 1.307l16.937-.957c.599-.033 1.052-.673 1.01-1.431l0 0c-.043-.754-.567-1.34-1.164-1.307l-16.937.957c-.6.036-1.052.677-1.01 1.431l0 0"/><path d="m41.4 50.82c-.123.713.179 1.358.673 1.444l13.996 2.428c.494.086.997-.422 1.12-1.134l0 0c.124-.711-.179-1.358-.673-1.444l-13.995-2.428c-.495-.085-.997.424-1.121 1.134l0 0"/></g><path fill="#28a6de" d="m59.976 45.62c3.208 3.403 3.54 8.297.739 10.935-2.798 2.642-7.665 2.025-10.873-1.378-3.205-3.398-10.857-13.925-8.06-16.562 2.801-2.641 14.985 3.607 18.19 7.01"/><path fill="#7de2f9" d="m41.998 38.41c3.101-2.179 14.92 3.869 18.07 7.213 3.234 3.427 3.567 8.356.748 11.02-1.286 1.213-5.02 1.708-6.812 1.602-.009-8.05-4.766-15.601-12.01-19.832"/></svg>

<?xml version="1.0" encoding="UTF-8" standalone="no"?>
<!-- Generator: Adobe Illustrator 16.0.0, SVG Export Plug-In . SVG Version: 6.00 Build 0)  -->

<svg
   xmlns:dc="http://purl.org/dc/elements/1.1/"
   xmlns:cc="http://creativecommons.org/ns#"
   xmlns:rdf="http://www.w3.org/1999/02/22-rdf-syntax-ns#"
   xmlns:svg="http://www.w3.org/2000/svg"
   xmlns="http://www.w3.org/2000/svg"
   xmlns:sodipodi="http://sodipodi.sourceforge.net/DTD/sodipodi-0.dtd"
   xmlns:inkscape="http://www.inkscape.org/namespaces/inkscape"
   version="1.1"
   id="Layer_1"
   x="0px"
   y="0px"
   width="64px"
   height="64px"
   viewBox="0 0 64 64"
   enable-background="new 0 0 64 64"
   xml:space="preserve"
   inkscape:version="0.48.5 r10040"
   sodipodi:docname="1F63F.svg"
   inkscape:export-filename="D:\TESTINGEMOJI\SVGTEST\1F63F.png"
   inkscape:export-xdpi="90"
   inkscape:export-ydpi="90"><metadata
   id="metadata6348"><rdf:RDF><cc:Work
       rdf:about=""><dc:format>image/svg+xml</dc:format><dc:type
         rdf:resource="http://purl.org/dc/dcmitype/StillImage" /><dc:title></dc:title></cc:Work></rdf:RDF></metadata><defs
   id="defs6346" /><sodipodi:namedview
   pagecolor="#ffffff"
   bordercolor="#666666"
   borderopacity="1"
   objecttolerance="10"
   gridtolerance="10"
   guidetolerance="10"
   inkscape:pageopacity="0"
   inkscape:pageshadow="2"
   inkscape:window-width="640"
   inkscape:window-height="480"
   id="namedview6344"
   showgrid="false"
   inkscape:zoom="3.6875"
   inkscape:cx="32"
   inkscape:cy="32"
   inkscape:window-x="598"
   inkscape:window-y="381"
   inkscape:window-maximized="0"
   inkscape:current-layer="Layer_1" />
<g
   id="g6230">
	<g
   id="g6232">
		<g
   id="g6234">
			<path
   fill="#7094A6"
   d="M49.761,10.667c-0.986,4.137,9.023,12.771,11.934,13.466s1.56-8.159,1.425-13.12     c-0.14-5.106-0.016-10.271-2.926-10.966C57.283-0.647,50.748,6.531,49.761,10.667z"
   id="path6236" />
		</g>
	</g>
	<g
   id="g6238">
		<g
   id="g6240">
			<path
   fill="#EDA75A"
   d="M50.256,13.894c-0.859,3.595,7.833,11.091,10.361,11.695c2.527,0.604,1.354-7.084,1.236-11.394     c-0.122-4.435-0.014-8.92-2.544-9.521C56.786,4.07,51.111,10.302,50.256,13.894z"
   id="path6242" />
		</g>
	</g>
	<g
   id="g6244">
		<g
   id="g6246">
			<path
   fill="#7094A6"
   d="M14.119,10.667c0.989,4.137-9.021,12.771-11.931,13.466c-2.912,0.695-1.56-8.159-1.425-13.12     C0.903,5.907,0.779,0.742,3.689,0.047C6.599-0.647,13.134,6.531,14.119,10.667z"
   id="path6248" />
		</g>
	</g>
	<g
   id="g6250">
		<g
   id="g6252">
			<path
   fill="#EDA75A"
   d="M13.842,13.894C14.7,17.488,6.009,24.984,3.481,25.589c-2.527,0.604-1.354-7.084-1.236-11.394     c0.122-4.435,0.014-8.92,2.541-9.521C7.312,4.07,12.987,10.302,13.842,13.894z"
   id="path6254" />
		</g>
	</g>
	<g
   id="g6256">
		<g
   id="g6258">
			<path
   fill="#87B1C1"
   d="M63.549,31.425c0,17.552-14.224,31.774-31.774,31.774C14.223,63.199,0,48.977,0,31.425     C0,13.877,14.223,1.66,31.774,1.66C49.325,1.66,63.549,13.877,63.549,31.425z"
   id="path6260" />
		</g>
	</g>
	<g
   id="g6262">
		<g
   id="g6264">
			<g
   id="g6266">
				<path
   fill="#7094A6"
   d="M15.122,40.719C9.49,28.634,9.845,16.66,14.934,5.911C6.075,10.718,0,20.322,0,31.429      c0,17.548,14.223,31.774,31.774,31.774c0.314,0,0.618-0.039,0.93-0.047C25.42,57.021,19.282,49.647,15.122,40.719z"
   id="path6268" />
			</g>
		</g>
	</g>
	<g
   id="g6270">
		<g
   id="g6272">
			<path
   fill="#394C54"
   d="M26.354,43.431c0-2.579,2.194-2.531,5.186-2.531c2.995,0,5.654-0.048,5.654,2.531     c0,2.582-2.428,4.674-5.42,4.674C28.782,48.104,26.354,46.013,26.354,43.431z"
   id="path6274" />
		</g>
	</g>
	<path
   fill="#394C54"
   d="M54.092,18.807c-4.98-2.107-9.319-5.181-13.262-9.384c-0.824-0.879-2.3-0.53-2.778,0.577   c-0.29,0.671-0.161,1.417,0.338,1.947c4.205,4.49,8.85,7.771,14.199,10.039c0.231,0.098,0.471,0.149,0.71,0.149   c0.84,0,1.602-0.644,1.774-1.5C55.234,19.847,54.85,19.129,54.092,18.807z"
   id="path6276" />
	<path
   fill="#394C54"
   d="M9.457,18.807c4.979-2.107,9.317-5.181,13.262-9.384c0.822-0.879,2.298-0.53,2.778,0.577   c0.291,0.671,0.161,1.417-0.337,1.947c-4.207,4.49-8.85,7.771-14.2,10.039c-0.231,0.098-0.471,0.149-0.712,0.149   c-0.838,0-1.6-0.644-1.772-1.5C8.314,19.847,8.699,19.129,9.457,18.807z"
   id="path6278" />
	<g
   id="g6280">
		<g
   id="g6282">
			<path
   fill="#394C54"
   d="M21.26,56.321c-0.626,0.712-0.24,1.905,0.791,1.905c1.189,0,5.459-1.802,9.694-1.802     c4.742,0,9.435,1.802,9.694,1.802c1.03,0,1.409-1.193,0.797-1.905C36.555,49.769,26.931,49.769,21.26,56.321z"
   id="path6284" />
		</g>
	</g>
	<g
   id="g6286">
		<g
   id="g6288">
			<path
   fill="#FFFFFF"
   d="M27.274,28.966c0,5.345-2.888,9.67-6.456,9.67c-3.573,0-6.46-4.325-6.46-9.67     c0-5.342,2.887-9.67,6.46-9.67C24.386,19.296,27.274,23.625,27.274,28.966z"
   id="path6290" />
		</g>
	</g>
	<g
   id="g6292">
		<g
   id="g6294">
			<path
   fill="#FFFFFF"
   d="M49.127,28.966c0,5.345-2.889,9.67-6.456,9.67s-6.46-4.325-6.46-9.67c0-5.342,2.893-9.67,6.46-9.67     S49.127,23.625,49.127,28.966z"
   id="path6296" />
		</g>
	</g>
	<g
   id="g6298">
		<g
   id="g6300">
			<path
   fill="#25333A"
   d="M24.994,34.033c0,2.798-1.868,5.066-4.176,5.066c-2.312,0-4.18-2.269-4.18-5.066     c0-2.799,1.868-5.067,4.18-5.067C23.126,28.966,24.994,31.234,24.994,34.033z"
   id="path6302" />
		</g>
	</g>
	<g
   id="g6304">
		<g
   id="g6306">
			<path
   fill="#25333A"
   d="M46.847,34.033c0,2.798-1.87,5.066-4.176,5.066c-2.312,0-4.184-2.269-4.184-5.066     c0-2.799,1.872-5.067,4.184-5.067C44.977,28.966,46.847,31.234,46.847,34.033z"
   id="path6308" />
		</g>
	</g>
	<g
   id="g6310">
		<g
   id="g6312">
			<path
   fill="#FFFFFF"
   d="M22.037,30.86c0,1.503-0.545,2.715-1.225,2.715c-0.671,0-1.22-1.212-1.22-2.715     c0-1.5,0.549-2.712,1.22-2.712C21.492,28.148,22.037,29.36,22.037,30.86z"
   id="path6314" />
		</g>
	</g>
	<g
   id="g6316">
		<g
   id="g6318">
			<path
   fill="#FFFFFF"
   d="M43.892,30.86c0,1.503-0.547,2.715-1.227,2.715c-0.671,0-1.221-1.212-1.221-2.715     c0-1.5,0.55-2.712,1.221-2.712C43.345,28.148,43.892,29.36,43.892,30.86z"
   id="path6320" />
		</g>
	</g>
	<g
   id="g6322">
		<path
   fill="#5E7D89"
   d="M24.676,47.95c-0.043,0.755-0.563,1.34-1.164,1.307L6.576,48.299c-0.598-0.033-1.052-0.673-1.008-1.431    l0,0c0.043-0.753,0.565-1.34,1.164-1.307l16.937,0.958C24.269,46.555,24.72,47.194,24.676,47.95L24.676,47.95z"
   id="path6324" />
		<path
   fill="#5E7D89"
   d="M24.009,51.123c0.124,0.712-0.179,1.357-0.673,1.444L9.341,54.995c-0.495,0.086-0.997-0.423-1.121-1.135    l0,0c-0.124-0.71,0.179-1.357,0.673-1.444l13.995-2.428C23.383,49.902,23.886,50.412,24.009,51.123L24.009,51.123z"
   id="path6326" />
		<path
   fill="#5E7D89"
   d="M40.732,47.647c0.043,0.756,0.563,1.341,1.164,1.307l16.937-0.957c0.599-0.033,1.052-0.673,1.009-1.431    l0,0c-0.043-0.754-0.567-1.34-1.164-1.307l-16.937,0.957C41.141,46.252,40.689,46.893,40.732,47.647L40.732,47.647z"
   id="path6328" />
		<path
   fill="#5E7D89"
   d="M41.399,50.82c-0.123,0.713,0.179,1.358,0.673,1.444l13.996,2.428c0.494,0.086,0.997-0.422,1.12-1.134l0,0    c0.124-0.711-0.179-1.358-0.673-1.444l-13.995-2.428C42.025,49.601,41.523,50.11,41.399,50.82L41.399,50.82z"
   id="path6330" />
	</g>
	<g
   id="g6332">
		<g
   id="g6334">
			<path
   fill="#28A6DE"
   d="M59.976,45.62c3.208,3.403,3.54,8.297,0.739,10.935c-2.798,2.642-7.665,2.025-10.873-1.378     c-3.205-3.398-10.857-13.925-8.056-16.562C44.587,35.974,56.771,42.222,59.976,45.62z"
   id="path6336" />
		</g>
	</g>
	<g
   id="g6338">
		<g
   id="g6340">
			<path
   fill="#7DE2F9"
   d="M41.998,38.415c3.101-2.179,14.92,3.869,18.071,7.213c3.234,3.427,3.567,8.356,0.748,11.017     c-1.286,1.213-5.017,1.708-6.812,1.602C53.996,50.2,49.239,42.646,41.998,38.415z"
   id="path6342" />
		</g>
	</g>
</g>
</svg>
